X:1
T:Yes Sir, That's My Baby
C:Walter Donaldson
M:4/4
L:1/8
Q:1/4=160
K:G
G2 GA B2 d2 | c2 B4 z2 | B2 Bc d2 e2 | d6 z2 |
d2 de d2 c2 | B4 A2 G2 | G8- | G8 |
G2 GA B2 d2 | c2 B4 z2 | B2 Bc d2 e2 | d6 z2 |
d2 c2 B2 A2 | G4 B4 | d4 G4 | G8 |]
